X: 367
T: Wangqiufeng xiaochang
%%abc-version 2.0
%%abcx-abcm2ps-target-version 5.9.1 (29 Sep 2008)
%%abc-creator hum2abc beta
%%abcx-conversion-date 2013/10/02 07:52:30
%%abc-edited-by Helmut Schaffrath
%%humdrum-veritas 4023231038
%%humdrum-veritas-data 1816894674
%%continueall 1
%%barnumbers 0
L: 1/8
M: 2/4
K: A
B B B F [I:setbarnb 1]| 
B4 | 
e> c B A | 
E4 | 
B B F E | 
B B F E | 
B B B F | 
A2F E | 
F c/ c/ B F | 
E4 |]  



